build/img/icon-whatsapp.svg

<svg width="27" height="27" viewBox="0 0 27 27" preserveAspectRatio="none" xmlns="http://www.w3.org/2000/svg">
<path fill="currentColor" d="M11.7322 7.12214C11.6131 6.55018 11.3828 6.49535 11.1737 6.44729C11.0033 6.40663 10.8072 6.36917 10.6111 6.33171C10.4175 6.29472 10.083 6.31198 9.75349 6.5791C9.42204 6.84315 8.51536 7.46535 8.21717 9.02627C7.91947 10.5846 8.68664 12.2949 8.79149 12.5341C8.89926 12.7711 10.1561 16.4364 12.9003 18.2782C15.1824 19.8072 15.7282 19.695 16.2755 19.7455C16.8258 19.7938 18.1626 19.3105 18.5487 18.6159C18.9343 17.9239 19.0554 17.2897 19.0082 17.1427C18.9611 16.9957 18.7799 16.8799 18.515 16.6643C18.2526 16.4491 16.9536 15.4082 16.7029 15.2494C16.4541 15.0937 16.2681 15.004 16.0116 15.2824C15.7552 15.5608 15.0546 16.1682 14.8423 16.3468C14.6301 16.5254 14.4557 16.5191 14.1903 16.3061C13.9278 16.0909 13.0451 15.576 12.1284 14.2808C11.4151 13.2734 11.0225 12.1243 10.9114 11.773C10.7999 11.4243 10.9853 11.2812 11.1634 11.1502C11.3235 11.0347 11.5295 10.8359 11.7126 10.6788C11.8932 10.5212 11.9666 10.4 12.1062 10.2075C12.2434 10.0146 12.2304 9.82001 12.1882 9.64691C12.146 9.47381 11.8739 7.79854 11.7322 7.12214Z"/>
<path d="M3.89061 21.2727L4.36495 21.4308L4.453 21.1666L4.2748 20.9527L3.89061 21.2727ZM2.38889 25.7778L1.91455 25.6197L1.63529 26.4575L2.49735 26.2659L2.38889 25.7778ZM8.03513 24.5231L8.25401 24.0736L8.09706 23.9972L7.92667 24.035L8.03513 24.5231ZM25.5 13.2778C25.5 19.9052 20.1274 25.2778 13.5 25.2778V26.2778C20.6797 26.2778 26.5 20.4575 26.5 13.2778H25.5ZM13.5 1.27783C20.1274 1.27783 25.5 6.65042 25.5 13.2778H26.5C26.5 6.09813 20.6797 0.277832 13.5 0.277832V1.27783ZM1.5 13.2778C1.5 6.65042 6.87258 1.27783 13.5 1.27783V0.277832C6.3203 0.277832 0.5 6.09813 0.5 13.2778H1.5ZM4.2748 20.9527C2.54195 18.8722 1.5 16.1973 1.5 13.2778H0.5C0.5 16.4397 1.62947 19.3391 3.50641 21.5927L4.2748 20.9527ZM2.86323 25.9359L4.36495 21.4308L3.41627 21.1146L1.91455 25.6197L2.86323 25.9359ZM7.92667 24.035L2.28042 25.2897L2.49735 26.2659L8.1436 25.0112L7.92667 24.035ZM13.5 25.2778C11.6178 25.2778 9.8382 24.8449 8.25401 24.0736L7.81626 24.9727C9.53385 25.8089 11.4629 26.2778 13.5 26.2778V25.2778Z"/>
</svg>

<svg width="27" height="27" viewBox="0 0 27 27" preserveAspectRatio="none" xmlns="http://www.w3.org/2000/svg"><path fill="currentColor" d="M11.732 7.122c-.119-.572-.35-.627-.558-.675-.17-.04-.367-.078-.563-.115-.194-.037-.528-.02-.858.247-.331.264-1.238.886-1.536 2.447-.298 1.559.47 3.269.574 3.508.108.237 1.365 3.902 4.11 5.744 2.281 1.53 2.827 1.417 3.375 1.468.55.048 1.887-.435 2.273-1.13.385-.692.506-1.326.46-1.473-.048-.147-.23-.263-.494-.479-.262-.215-1.561-1.256-1.812-1.415-.249-.155-.435-.245-.691.033-.257.279-.957.886-1.17 1.065-.212.178-.386.172-.652-.04-.262-.216-1.145-.731-2.062-2.026-.713-1.008-1.105-2.157-1.217-2.508-.111-.349.074-.492.252-.623.16-.115.367-.314.55-.471.18-.158.254-.279.393-.472.137-.192.124-.387.082-.56-.042-.173-.314-1.848-.456-2.525z"/><path d="M3.89 21.273l.475.158.088-.264-.178-.214-.384.32zm-1.5 4.505l-.474-.158-.28.837.862-.191-.108-.488zm5.646-1.255l.219-.45-.157-.076-.17.038.108.488zM25.5 13.278c0 6.627-5.373 12-12 12v1c7.18 0 13-5.82 13-13h-1zm-12-12c6.627 0 12 5.372 12 12h1c0-7.18-5.82-13-13-13v1zm-12 12c0-6.628 5.373-12 12-12v-1c-7.18 0-13 5.82-13 13h1zm2.775 7.675A11.95 11.95 0 011.5 13.278h-1a12.95 12.95 0 003.006 8.315l.769-.64zm-1.412 4.983l1.502-4.505-.949-.316-1.501 4.505.948.316zm5.064-1.901L2.28 25.29l.217.976 5.647-1.255-.217-.976zm5.573 1.243a11.95 11.95 0 01-5.246-1.204l-.438.899a12.95 12.95 0 005.684 1.305v-1z"/></svg>
